modules/zondicons/icons/mic.svg

<?xml version="1.0" encoding="UTF-8" standalone="no"?>
<svg width="20px" height="20px" viewBox="0 0 20 20" version="1.1" xmlns="http://www.w3.org/2000/svg" xmlns:xlink="http://www.w3.org/1999/xlink">
    <!-- Generator: Sketch 3.7.2 (28276) - http://www.bohemiancoding.com/sketch -->
    <title>mic</title>
    <desc>Created with Sketch.</desc>
    <defs></defs>
    <g id="Page-1" stroke="none" stroke-width="1" fill="none" fill-rule="evenodd">
        <g id="mic" fill="#000000">
            <path d="M11,17.9378859 C14.9395595,17.4450043 18,14.0790094 18,10 L16,10 L16,10.0018149 C16,13.314521 13.3069658,16 10,16 C6.6862915,16 4,13.3172241 4,10.0018149 L4,10 L2,10 C2,14.0713165 5.05368842,17.4447356 9,17.9379599 L9,20 L11,20 L11,17.9378859 Z M6,3.99310226 C6,1.78777278 7.79535615,0 10,0 C12.209139,0 14,1.78732987 14,3.99310226 L14,10.0068977 C14,12.2122272 12.2046438,14 10,14 C7.790861,14 6,12.2126701 6,10.0068977 L6,3.99310226 Z" id="Combined-Shape"></path>
        </g>
    </g>
</svg>

<svg width="20" height="20" viewBox="0 0 20 20" xmlns="http://www.w3.org/2000/svg"><path d="M11 17.938c3.94-.493 7-3.859 7-7.938h-2v.002A6.003 6.003 0 0 1 10 16c-3.314 0-6-2.683-6-5.998V10H2c0 4.071 3.054 7.445 7 7.938V20h2v-2.062zM6 3.993A4 4 0 0 1 10 0c2.21 0 4 1.787 4 3.993v6.014A4 4 0 0 1 10 14c-2.21 0-4-1.787-4-3.993V3.993z" fill="#000" fill-rule="evenodd"/></svg>
